flaticon/interaction/notepad-18.svg

<svg xmlns="http://www.w3.org/2000/svg" width="32" height="32" viewBox="0 0 24 24">
    <path d="M22.601562 23.042969L19.789062 20.230469 22.472656 18.886719 15.175781 16.199219 17.863281 23.496094 19.207031 20.8125 22.019531 23.625C22.097656 23.707031 22.203125 23.746094 22.308594 23.746094 22.417969 23.746094 22.523438 23.707031 22.601562 23.625 22.765625 23.464844 22.765625 23.203125 22.601562 23.042969zM16.570312 17.59375L20.390625 19.003906 18.78125 19.804688 17.980469 21.414062zM4.105469 7.449219L9.484375 7.449219C9.710938 7.449219 9.898438 7.261719 9.898438 7.035156 9.898438 6.804688 9.710938 6.621094 9.484375 6.621094L4.105469 6.621094C3.875 6.621094 3.691406 6.804688 3.691406 7.035156 3.691406 7.261719 3.875 7.449219 4.105469 7.449219zM4.105469 19.035156C3.875 19.035156 3.691406 19.21875 3.691406 19.449219 3.691406 19.675781 3.875 19.863281 4.105469 19.863281L11.621094 19.863281C11.851562 19.863281 12.035156 19.675781 12.035156 19.449219 12.035156 19.21875 11.851562 19.035156 11.621094 19.035156zM16.105469 9.101562L4.105469 9.101562C3.875 9.101562 3.691406 9.289062 3.691406 9.515625 3.691406 9.746094 3.875 9.929688 4.105469 9.929688L16.105469 9.929688C16.332031 9.929688 16.515625 9.746094 16.515625 9.515625 16.515625 9.289062 16.332031 9.101562 16.105469 9.101562zM14.515625 14.484375C14.515625 14.253906 14.332031 14.070312 14.101562 14.070312L4.105469 14.070312C3.875 14.070312 3.691406 14.253906 3.691406 14.484375 3.691406 14.710938 3.875 14.898438 4.105469 14.898438L14.105469 14.898438C14.332031 14.898438 14.515625 14.710938 14.515625 14.484375zM13.277344 16.964844C13.277344 16.738281 13.089844 16.550781 12.863281 16.550781L4.105469 16.550781C3.875 16.550781 3.691406 16.738281 3.691406 16.964844 3.691406 17.195312 3.875 17.378906 4.105469 17.378906L12.863281 17.378906C13.089844 17.378906 13.277344 17.195312 13.277344 16.964844zM4.105469 12.414062L9.898438 12.414062C10.125 12.414062 10.308594 12.230469 10.308594 12 10.308594 11.769531 10.125 11.585938 9.898438 11.585938L4.105469 11.585938C3.875 11.585938 3.691406 11.769531 3.691406 12 3.691406 12.230469 3.875 12.414062 4.105469 12.414062zM16.515625 12C16.515625 11.769531 16.332031 11.585938 16.105469 11.585938L13.207031 11.585938C12.976562 11.585938 12.792969 11.769531 12.792969 12 12.792969 12.230469 12.976562 12.414062 13.207031 12.414062L16.105469 12.414062C16.332031 12.414062 16.515625 12.230469 16.515625 12zM11.84375 12.292969C11.921875 12.214844 11.964844 12.109375 11.964844 12 11.964844 11.890625 11.921875 11.785156 11.84375 11.707031 11.691406 11.554688 11.410156 11.554688 11.261719 11.707031 11.183594 11.785156 11.136719 11.890625 11.136719 12 11.136719 12.109375 11.183594 12.214844 11.257812 12.292969 11.335938 12.367188 11.441406 12.414062 11.550781 12.414062 11.660156 12.414062 11.765625 12.367188 11.84375 12.292969zM11.84375 12.292969"/>
    <path d="M 15.757812 23.171875 L 2.101562 23.171875 L 2.101562 3.308594 L 5 3.308594 L 5 4.136719 C 5 4.367188 5.183594 4.550781 5.414062 4.550781 L 14.929688 4.550781 C 15.160156 4.550781 15.34375 4.367188 15.34375 4.136719 L 15.34375 3.308594 L 18.242188 3.308594 L 18.242188 15.308594 C 18.242188 15.539062 18.425781 15.722656 18.65625 15.722656 C 18.882812 15.722656 19.070312 15.539062 19.070312 15.308594 L 19.070312 2.898438 C 19.070312 2.667969 18.882812 2.484375 18.65625 2.484375 L 15.34375 2.484375 L 15.34375 1.65625 C 15.34375 1.425781 15.160156 1.242188 14.929688 1.242188 L 12.449219 1.242188 L 12.449219 0.414062 C 12.449219 0.183594 12.261719 0 12.035156 0 L 8.308594 0 C 8.082031 0 7.894531 0.183594 7.894531 0.414062 L 7.894531 1.242188 L 5.414062 1.242188 C 5.183594 1.242188 5 1.425781 5 1.65625 L 5 2.484375 L 1.691406 2.484375 C 1.460938 2.484375 1.277344 2.667969 1.277344 2.898438 L 1.277344 23.585938 C 1.277344 23.816406 1.460938 24 1.691406 24 L 15.757812 24 C 15.988281 24 16.171875 23.816406 16.171875 23.585938 C 16.171875 23.355469 15.988281 23.171875 15.757812 23.171875 Z M 8.722656 0.828125 L 11.621094 0.828125 L 11.621094 2.484375 L 8.722656 2.484375 Z M 5.828125 2.070312 L 7.894531 2.070312 L 7.894531 2.898438 C 7.894531 3.125 8.082031 3.308594 8.308594 3.308594 L 12.035156 3.308594 C 12.261719 3.308594 12.449219 3.125 12.449219 2.898438 L 12.449219 2.070312 L 14.515625 2.070312 L 14.515625 3.722656 L 5.828125 3.722656 Z M 5.828125 2.070312"/>
</svg>

<svg xmlns="http://www.w3.org/2000/svg" width="32" height="32" viewBox="0 0 24 24">
    <path d="M22.602 23.043l-2.813-2.813 2.684-1.343-7.297-2.688 2.687 7.297 1.344-2.683 2.813 2.812a.396.396 0 0 0 .289.121c.109 0 .214-.039.293-.121a.406.406 0 0 0 0-.582zm-6.032-5.45l3.82 1.41-1.609.802-.8 1.61zm0 0M4.105 7.45h5.38a.414.414 0 0 0 0-.828h-5.38a.414.414 0 0 0 0 .828zm0 0M4.105 19.035a.414.414 0 0 0 0 .828h7.516a.414.414 0 0 0 0-.828zm0 0M16.105 9.102h-12a.414.414 0 0 0 0 .828h12c.227 0 .41-.184.41-.414a.413.413 0 0 0-.41-.414zm0 0M14.516 14.484a.412.412 0 0 0-.414-.414H4.105a.414.414 0 0 0 0 .828h10c.227 0 .41-.187.41-.414zm0 0M13.277 16.965a.417.417 0 0 0-.414-.414H4.105a.414.414 0 0 0 0 .828h8.758a.414.414 0 0 0 .414-.414zm0 0M4.105 12.414h5.793c.227 0 .41-.184.41-.414a.411.411 0 0 0-.41-.414H4.105a.412.412 0 0 0-.414.414c0 .23.184.414.414.414zm0 0M16.516 12a.411.411 0 0 0-.41-.414h-2.899a.412.412 0 0 0-.414.414c0 .23.184.414.414.414h2.898c.227 0 .41-.184.41-.414zm0 0M11.844 12.293a.414.414 0 0 0 0-.586.428.428 0 0 0-.582 0 .418.418 0 0 0-.125.293c0 .11.047.215.12.293a.431.431 0 0 0 .294.121c.11 0 .215-.047.293-.121zm0 0"/>
    <path d="M15.758 23.172H2.102V3.309H5v.828c0 .23.184.414.414.414h9.516c.23 0 .414-.184.414-.414v-.828h2.898v12a.414.414 0 0 0 .828 0V2.899a.414.414 0 0 0-.414-.415h-3.312v-.828a.412.412 0 0 0-.414-.414h-2.48V.414A.414.414 0 0 0 12.034 0H8.31a.414.414 0 0 0-.414.414v.828h-2.48A.412.412 0 0 0 5 1.656v.828H1.691a.412.412 0 0 0-.414.414v20.688c0 .23.184.414.414.414h14.067c.23 0 .414-.184.414-.414a.412.412 0 0 0-.414-.414zM8.723.828h2.898v1.656H8.723zM5.828 2.07h2.067v.828c0 .227.187.41.414.41h3.726a.413.413 0 0 0 .414-.41V2.07h2.067v1.653H5.828zm0 0"/>
</svg>
